X:1
T:Megismerni a kanászt
C:Hungarian folk song
Z:Public Domain
L:1/8
M:2/4
K:C
V:1 treble nm="Voice"
%%MIDI program 52
V:1
 GG GA | FF F2 | GG GG | A2 A2 | GG GA | FF FF | CC CC | D2 D2 |] %8
w: Meg- si- mer- ni|a ka- nászt|é- kes já- rá-|sá- ról,|E- löl fű- zött|bocs- ko- rá- ról,|ta- risz- nya- szí-|já- ról.-|

